X:7
T:Altered by Accretion
M:C|
L:1/8
C:© Paul Gitlitz 2007
R:Reel
K:Am
"E"EA^GB "Am"ABcA|"G7"Bcdf  "Am"e3a| "Dm"fdfd "Am"ecAc|"B7"BG^F=F "E7"E3E|!
"Am/E"EA^GB "Am"ABcA|"G7"B2 (3Bcd "Am" c3e|"E7" e^de=d "F"cBAc|"E7"BA^GB "Am"A4:|!
|:"F"a2ab agf2|"Am"edef e4|"E7"B3c dcB2|"C"cBcd "E7"e3^g|!
"F"a2ab agf2|"Am"edef e4|"E"e^ded "Am"cBAc|"E7"BA^GB "Am"A4:|]
